!! Stephen C. Foster, "Thou Art the Queen of My Song"
!! from 'Stephen Foster Song Book' Dover Publications (New York) pp. 136-138
!! NOTE:  Leading and trailing bars of rest have been omitted.
**kern
*M4/4
*MM84
*C:
8r
8a
=1
4.g
8e
4c
8cc
8b-
=2
8dd
8cc
8cc
8a
4g
8r
8a
=3
4.g
8e
4c
8d
8e
=4
8e
8d
8d
8c
4d
8r
8d
=5
4e
8.d
16e
4f
8e
8f
=6
8g
8g
8.ee;
16dd
4cc;
8g
8r
=7
8a
4.dd
{8cc
8b}
8a
8b
=8
2.cc
8r
8a
=9
4a
8.g#
16a
4cc
8.b
16a
=10
4.g
8e
4c
8r
8g
=11
4a
8g#
8a
8dd
8cc
8.cc
16a
=12
2.g
4r
=13
2ee
4ee
4ee
=14
{4.a
8ee}
4dd
4r
=15
4g
8.cc
16cc
4dd
8.b
16b
=16
2.cc
==
*-
